X:1
T:A psalme before morning praier
T:John Dowland
T:Source : The Whole Book of Psalms---London---Th.Est(e)---1592. Editor : André Vierendeels (19/09/16). 
T:Notes : Original clefs : C1, C2, C4, F4 Original note values have been halved
T:A psalme before morning praier
T:©
C:John Dowland
Z:©
%%score [ 1 2 3 4 ]
L:1/8
Q:1/4=88
M:2/2
K:F
V:1 treble nm="Soprano" snm="S"
V:2 treble nm="Alto" snm="A"
V:3 treble-8 nm="Tenor" snm="T"
V:4 bass nm="Bass" snm="B"
V:1
 A4 A2 G2 | B2 A2 A2 c2 |[M:2/4] c4 || c4 |[M:2/2] c2 c2 c2 A2 | d2 c2 c4 || A4 G2 F2 | %7
w: Praise the Lord,|O yee Gen- tils|all,|which|hath brought you in-|to his light:|O praise him|
 E2 c2 B2 G2 |[M:2/4] A4 || A4 |[M:2/2] F3 F c2 d2 | c4 c3 B | A8 |] %13
w: all peo- ple mor-|tall,|as|it is most wor-|thie and _|right.|
V:2
 C4 C2 C2 | DE F4 E2 |[M:2/4] F4 || F4 |[M:2/2] F2 F2 E2 D2 | F2 F2 E4 || C4 E2 C2 | C3 C D2 C2 | %8
w: Praise the Lord,|O yee Gen- tils|all,|which|hath brought you in-|to his light:|O praise him|all peo- ple mor-|
[M:2/4] C4 || F4 |[M:2/2] C2 F2 E2 F2 | F4 E4 | F8 |] %13
w: tall,|as|it is most wor-|thie and|right.|
V:3
 F4 F2 E2 | D2 C2 F2 G2 |[M:2/4] A4 || A4 |[M:2/2] A2 A2 G2 F2 | B2 A2 G4 || F4 G2 A2 | %7
w: Praise the Lord,|O yee Gen- tils|all,|which|hath brought you in-|to his light:|O praise him|
 G2 F2 D2 E2 |[M:2/4] F4 || c4 |[M:2/2] A2 F2 G2 B2 | A4 G4 | F8 |] %13
w: all peo- ple mor-|tall,|as|it is most wor-|thie and|right.|
V:4
 F,,4 F,,2 C,2 | G,,2 A,,2 D,2 C,2 |[M:2/4] F,,4 || F,4 |[M:2/2] F,2 F,2 C,2 D,2 | B,,2 F,2 C,4 || %6
w: Praise the Lord,|O yee Gen- tils|all,|which|hath brought you in-|to his light:|
 F,,4 C,2 F,,2 | C,2 A,,2 B,,2 C,2 |[M:2/4] F,,4 || F,4 |[M:2/2] F,2 D,2 C,2 B,,2 | F,4 C,4 | %12
w: O praise him|all peo- ple mor-|tall,|as|it is most wor-|thie and|
 F,,8 |] %13
w: right.|

